material/.icons/material/minus-circle-multiple.svg

<svg xmlns="http://www.w3.org/2000/svg" viewBox="0 0 24 24"><path d="M2 12c0-2.79 1.64-5.2 4-6.32V3.5C2.5 4.76 0 8.09 0 12s2.5 7.24 6 8.5v-2.18C3.64 17.2 2 14.79 2 12m13-9c-4.96 0-9 4.04-9 9s4.04 9 9 9 9-4.04 9-9-4.04-9-9-9m5 10H10v-2h10v2z"/></svg>

<?xml version="1.0" encoding="UTF-8"?><!DOCTYPE svg PUBLIC "-//W3C//DTD SVG 1.1//EN" "http://www.w3.org/Graphics/SVG/1.1/DTD/svg11.dtd"><svg xmlns="http://www.w3.org/2000/svg" xmlns:xlink="http://www.w3.org/1999/xlink" version="1.1" id="mdi-minus-circle-multiple" width="24" height="24" viewBox="0 0 24 24"><path d="M2 12C2 9.21 3.64 6.8 6 5.68V3.5C2.5 4.76 0 8.09 0 12S2.5 19.24 6 20.5V18.32C3.64 17.2 2 14.79 2 12M15 3C10.04 3 6 7.04 6 12S10.04 21 15 21 24 16.96 24 12 19.96 3 15 3M20 13H10V11H20V13Z" /></svg>
